docs/local/img/sprites/VK.svg

<svg width="32" height="32" viewBox="0 0 32 32" fill="none" xmlns="http://www.w3.org/2000/svg">
<g clip-path="url(#clip0_93_1412)">
<path d="M0 15.36C0 8.1192 0 4.49884 2.24942 2.24942C4.49884 0 8.1192 0 15.36 0H16.64C23.8808 0 27.5011 0 29.7506 2.24942C32 4.49884 32 8.1192 32 15.36V16.64C32 23.8808 32 27.5011 29.7506 29.7506C27.5011 32 23.8808 32 16.64 32H15.36C8.1192 32 4.49884 32 2.24942 29.7506C0 27.5011 0 23.8808 0 16.64V15.36Z" fill="#0077FF"/>
<path d="M17.0266 23.0534C9.73329 23.0534 5.57336 18.0534 5.40002 9.7334H9.05336C9.17336 15.8401 11.8666 18.4267 14 18.9601V9.7334H17.4401V15.0001C19.5468 14.7734 21.7598 12.3734 22.5065 9.7334H25.9466C25.3732 12.9867 22.9732 15.3867 21.2666 16.3734C22.9732 17.1734 25.7067 19.2667 26.7467 23.0534H22.9599C22.1466 20.5201 20.1201 18.5601 17.4401 18.2934V23.0534H17.0266Z" fill="white"/>
</g>
<defs>
<clipPath id="clip0_93_1412">
<rect width="32" height="32" fill="white"/>
</clipPath>
</defs>
</svg>

<svg width="32" height="32" viewBox="0 0 32 32" fill="none" xmlns="http://www.w3.org/2000/svg"><g clip-path="url(#clip0_93_1412)"><path d="M0 15.36C0 8.12 0 4.499 2.25 2.25 4.498 0 8.12 0 15.36 0h1.28c7.24 0 10.861 0 13.11 2.25C32 4.498 32 8.12 32 15.36v1.28c0 7.24 0 10.861-2.25 13.11C27.502 32 23.88 32 16.64 32h-1.28c-7.24 0-10.861 0-13.11-2.25C0 27.502 0 23.88 0 16.64v-1.28z" fill="#07F"/><path d="M17.027 23.053c-7.294 0-11.454-5-11.627-13.32h3.653c.12 6.107 2.814 8.694 4.947 9.227V9.733h3.44V15c2.107-.227 4.32-2.627 5.066-5.267h3.44c-.573 3.254-2.973 5.654-4.68 6.64 1.707.8 4.44 2.894 5.48 6.68H22.96c-.813-2.533-2.84-4.493-5.52-4.76v4.76h-.413z" fill="#fff"/></g><defs><clipPath id="clip0_93_1412"><path fill="#fff" d="M0 0h32v32H0z"/></clipPath></defs></svg>
